picto/bicycle-park-left.svg

<svg class="color-immutable" width="24" height="24" viewBox="0 0 24 24" fill="none" xmlns="http://www.w3.org/2000/svg"><g clip-path="url(#a)"><path d="M0 22.5v-21C0 .675.675 0 1.5 0h21c.825 0 1.5.675 1.5 1.5v21c0 .825-.675 1.5-1.5 1.5h-21C.675 24 0 23.325 0 22.5Z" fill="#2D327D"/><path d="M3 3h1.816c.306 0 .546.019.722.057.175.038.334.105.476.202.392.263.588.659.588 1.188 0 .47-.162.839-.486 1.108a1.297 1.297 0 0 1-.472.248c-.177.05-.394.075-.653.075h-1.01V7.5H3V3Zm.982.831v1.274h.877c.261 0 .448-.046.563-.139.142-.115.212-.284.212-.508 0-.226-.082-.394-.246-.505-.119-.081-.312-.122-.581-.122h-.825ZM13.985 11.795l1.811.633a.374.374 0 0 0 .435-.145l.407-.604a.3.3 0 0 0-.249-.468h-2.304a.301.301 0 0 0-.1.584ZM7.649 11.812h2.626v-.6H7.649a.3.3 0 0 0 0 .6ZM7.65 12.788h.375a.3.3 0 0 0 0-.601H7.65a.3.3 0 0 0 0 .601ZM17.325 13.649a3.67 3.67 0 0 0-1.681.407l-.72-1.156h-5.85l-.72 1.156A3.673 3.673 0 0 0 3 17.325 3.676 3.676 0 0 0 6.675 21a3.676 3.676 0 0 0 2.189-6.627l.403-.648 1.966 2.923a.975.975 0 1 0 1.649 1.014h.782a3.676 3.676 0 1 0 3.661-4.013ZM9.75 17.325a3.077 3.077 0 0 1-6.151 0 3.076 3.076 0 0 1 4.438-2.757L6.42 17.167a.302.302 0 0 0 .256.459c.104 0 .2-.054.254-.142l1.617-2.598a3.074 3.074 0 0 1 1.203 2.439Zm2.518-1.013a.976.976 0 0 0-.536 0L9.84 13.5h4.32l-1.892 2.812Zm1.391.75h-.702a.983.983 0 0 0-.19-.415l1.965-2.923.404.648a3.68 3.68 0 0 0-1.477 2.69Zm1.794-2.177 1.355 2.177h-2.547a3.07 3.07 0 0 1 1.192-2.177Zm1.872 5.515a3.076 3.076 0 0 1-3.057-2.738h2.561a.6.6 0 1 0 .496-.938l-.019.001-1.343-2.158a3.075 3.075 0 1 1 1.362 5.833Z" fill="#fff"/></g><defs><clipPath id="a"><path fill="#fff" d="M0 0h24v24H0z"/></clipPath></defs></svg>

<svg class="color-immutable" width="24" height="24" viewBox="0 0 24 24" fill="none" xmlns="http://www.w3.org/2000/svg"><path d="M0 22.5V1.5C0 0.675 0.675 0 1.5 0H22.5C23.325 0 24 0.675 24 1.5V22.5C24 23.325 23.325 24 22.5 24H1.5C0.675 24 0 23.325 0 22.5Z" fill="#2D327D"/><path d="M3 3H4.816C5.122 3 5.362 3.019 5.538 3.057C5.713 3.095 5.872 3.162 6.014 3.259C6.406 3.522 6.602 3.918 6.602 4.447C6.602 4.917 6.44 5.286 6.116 5.555C5.977 5.67 5.82 5.752 5.644 5.803C5.467 5.853 5.25 5.878 4.991 5.878H3.981V7.5H3V3ZM3.982 3.831V5.105H4.859C5.12 5.105 5.307 5.059 5.422 4.966C5.564 4.851 5.634 4.682 5.634 4.458C5.634 4.232 5.552 4.064 5.388 3.953C5.269 3.872 5.076 3.831 4.807 3.831H3.982Z" fill="white"/><path d="M13.985 11.795L15.796 12.428C15.835 12.443 15.878 12.449 15.92 12.449C16.045 12.449 16.161 12.387 16.231 12.283L16.638 11.679C16.671 11.629 16.688 11.57 16.688 11.512C16.688 11.346 16.554 11.211 16.389 11.211H14.085C13.919 11.211 13.784 11.346 13.784 11.512C13.783 11.64 13.865 11.754 13.985 11.795Z" fill="white"/><path d="M7.64898 11.812H10.275V11.212H7.64898C7.48398 11.212 7.34998 11.346 7.34998 11.512C7.34998 11.678 7.48398 11.812 7.64898 11.812Z" fill="white"/><path d="M7.65001 12.788H8.02501C8.19001 12.788 8.32501 12.653 8.32501 12.488C8.32501 12.322 8.19001 12.187 8.02501 12.187H7.65001C7.48501 12.187 7.35101 12.322 7.35101 12.488C7.35101 12.653 7.48501 12.788 7.65001 12.788Z" fill="white"/><path d="M17.325 13.649C16.741 13.649 16.164 13.788 15.644 14.056L14.924 12.9H9.074L8.354 14.056C7.835 13.789 7.259 13.649 6.674 13.649C4.646 13.649 3 15.295 3 17.325C3 19.353 4.646 21 6.675 21C8.703 21 10.349 19.353 10.349 17.325C10.349 16.161 9.799 15.067 8.864 14.373L9.267 13.725L11.233 16.648C11.097 16.82 11.024 17.031 11.024 17.25C11.024 17.788 11.461 18.225 11.998 18.225C12.377 18.225 12.722 18.005 12.882 17.662H13.664C13.839 19.553 15.426 21 17.325 21C19.354 21 21 19.353 21 17.325C21 15.295 19.354 13.649 17.325 13.649ZM9.75 17.325C9.75 19.022 8.372 20.4 6.675 20.4C4.978 20.4 3.599 19.022 3.599 17.325C3.599 15.627 4.977 14.25 6.675 14.25C7.148 14.25 7.613 14.359 8.037 14.568L6.42 17.167C6.391 17.214 6.376 17.269 6.376 17.326C6.376 17.491 6.51 17.626 6.676 17.626C6.78 17.626 6.876 17.572 6.93 17.484L8.547 14.886C9.305 15.467 9.75 16.369 9.75 17.325ZM12.268 16.312C12.181 16.287 12.09 16.275 11.999 16.275C11.909 16.275 11.819 16.287 11.732 16.312L9.84 13.5H14.16L12.268 16.312ZM13.659 17.062H12.957C12.927 16.911 12.862 16.768 12.767 16.647L14.732 13.724L15.136 14.372C14.275 15.011 13.736 15.994 13.659 17.062ZM15.453 14.885L16.808 17.062H14.261C14.334 16.201 14.767 15.411 15.453 14.885ZM17.325 20.4C15.757 20.4 14.44 19.22 14.268 17.662H16.829C16.941 17.826 17.126 17.925 17.325 17.925C17.656 17.925 17.924 17.656 17.924 17.325C17.924 16.994 17.656 16.724 17.325 16.724C17.319 16.724 17.311 16.724 17.306 16.725L15.963 14.567C16.386 14.358 16.853 14.249 17.326 14.249C19.023 14.249 20.4 15.626 20.4 17.324C20.399 19.022 19.022 20.4 17.325 20.4Z" fill="white"/></svg>
